icon-svg/rooms-balcony.svg

<svg xmlns="http://www.w3.org/2000/svg" fill="#44739e" viewBox="0 0 24 24"><path d="M24 12.278c-.595.347-1 .984-1 1.722 0 .737.405 1.375 1 1.721v4.303c-.083-.005-.162-.024-.246-.024H20v-4.279c.595-.346 1-.984 1-1.721 0-.738-.405-1.375-1-1.722V8h4zM8 20.024v-4.303c.595-.346 1-.984 1-1.721 0-.738-.405-1.375-1-1.722V8h4v4.278c-.595.347-1 .984-1 1.722 0 .737.405 1.375 1 1.721V20H8.246c-.084 0-.163.019-.246.024m10-7.746c-.595.347-1 .984-1 1.722 0 .737.405 1.375 1 1.721V20h-4v-4.279c.595-.346 1-.984 1-1.721 0-.738-.405-1.375-1-1.722V8h4zM29 6H3c-.55 0-1 .45-1 1 0 .549.45 1 1 1h3v4.278c-.595.347-1 .984-1 1.722 0 .737.405 1.375 1 1.721v4.934c-1.197.751-2 2.073-2 3.591C4 25.215 4.785 26 5.754 26h20.492c.969 0 1.754-.785 1.754-1.754 0-1.518-.803-2.84-2-3.591v-4.934c.595-.346 1-.984 1-1.721 0-.738-.405-1.375-1-1.722V8h3c.55 0 1-.451 1-1 0-.55-.45-1-1-1"/></svg>

<?xml version="1.0" encoding="UTF-8"?>
<svg width="32px" height="32px" viewBox="0 0 32 32" fill="#44739e" version="1.1" xmlns="http://www.w3.org/2000/svg" xmlns:xlink="http://www.w3.org/1999/xlink">
            <path d="M24,12.278 C23.405,12.625 23,13.262 23,14 C23,14.737 23.405,15.375 24,15.721 L24,20.024 C23.917,20.019 23.838,20 23.754,20 L20,20 L20,15.721 C20.595,15.375 21,14.737 21,14 C21,13.262 20.595,12.625 20,12.278 L20,8 L24,8 L24,12.278 Z M8,20.024 L8,15.721 C8.595,15.375 9,14.737 9,14 C9,13.262 8.595,12.625 8,12.278 L8,8 L12,8 L12,12.278 C11.405,12.625 11,13.262 11,14 C11,14.737 11.405,15.375 12,15.721 L12,20 L8.246,20 C8.162,20 8.083,20.019 8,20.024 Z M18,12.278 C17.405,12.625 17,13.262 17,14 C17,14.737 17.405,15.375 18,15.721 L18,20 L14,20 L14,15.721 C14.595,15.375 15,14.737 15,14 C15,13.262 14.595,12.625 14,12.278 L14,8 L18,8 L18,12.278 Z M29,6 L3,6 C2.45,6 2,6.45 2,7 C2,7.549 2.45,8 3,8 L6,8 L6,12.278 C5.405,12.625 5,13.262 5,14 C5,14.737 5.405,15.375 6,15.721 L6,20.655 C4.803,21.406 4,22.728 4,24.246 C4,25.215 4.785,26 5.754,26 L26.246,26 C27.215,26 28,25.215 28,24.246 C28,22.728 27.197,21.406 26,20.655 L26,15.721 C26.595,15.375 27,14.737 27,14 C27,13.262 26.595,12.625 26,12.278 L26,8 L29,8 C29.55,8 30,7.549 30,7 C30,6.45 29.55,6 29,6 Z"></path>
</svg>
